Yaru++/devices/scalable/drive-removable-media.svg

<svg height="256" viewBox="0 0 67.73 67.73" width="256" xmlns="http://www.w3.org/2000/svg" xmlns:xlink="http://www.w3.org/1999/xlink"><linearGradient id="a" gradientTransform="matrix(0 -.11988342 -.11987999 0 66.879391 291.35314)" gradientUnits="userSpaceOnUse" x1="529.65515" x2="-35.310345" y1="295.6377" y2="295.6377"><stop offset="0" stop-color="#999"/><stop offset=".61328125" stop-color="#b7b7b7"/><stop offset="1" stop-color="#dbdbdb"/></linearGradient><linearGradient id="b" gradientTransform="matrix(0 -1 1 0 -10.0054 585.9946)" gradientUnits="userSpaceOnUse" x1="88" x2="488" y1="88" y2="488"><stop offset="0" stop-opacity=".588235"/><stop offset=".88" stop-opacity="0"/><stop offset="1"/></linearGradient><filter id="c" color-interpolation-filters="sRGB" height="1.087725" width="1.105998" x="-.052999" y="-.043863"><feGaussianBlur stdDeviation="8.4801079"/></filter><filter id="d" color-interpolation-filters="sRGB" height="1.021931" width="1.0265" x="-.01325" y="-.010966"><feGaussianBlur stdDeviation="2.120027"/></filter><g transform="translate(0 -229.26666)"><path d="m189.84323 74c-70.59344 0-78.18921 7.250835-77.84323 77.98706v146.01294 146.01294c-.34598 70.73623 7.24979 77.98706 77.84323 77.98706h196.31354c70.59344 0 76.00668-7.27384 77.84323-77.98706v-146.01294-146.01294c0-70.737067-7.24979-77.98706-77.84323-77.98706z" filter="url(#d)" opacity=".1" transform="matrix(0 .13228516 -.13228516 0 72.975171 223.88843)"/><path d="m189.84323 74c-70.59344 0-78.18921 7.250835-77.84323 77.98706v146.01294 146.01294c-.34598 70.73623 7.24979 77.98706 77.84323 77.98706h196.31354c70.59344 0 77.84323-7.24999 77.84323-77.98706v-146.01294-146.01294c0-70.737067-7.24979-77.98706-77.84323-77.98706z" fill="url(#b)" filter="url(#c)" opacity=".3" transform="matrix(0 .13228516 -.13228516 0 72.975171 223.88843)"/><path d="m63.186069 274.70524c0 9.33847-.959178 10.34327-10.31653 10.2975h-19.315345-19.315343c-9.3573553.0458-10.3165312-.95903-10.3165312-10.2975v-25.96937c0-9.33846.9590674-10.2975 10.3165312-10.2975h19.315343 19.315345c9.357463 0 10.31653.95904 10.31653 10.2975z" fill="url(#a)"/><path d="m3.9225174 274.17623v.52914c0 9.33846.9588206 10.34334 10.3161756 10.29757h19.3157 19.315183c9.357352.0458 10.316692-.95911 10.316692-10.29757v-.52914c0 9.33846-.95934 10.34334-10.316692 10.29757h-19.315183-19.3157c-9.357355.04577-10.3161756-.95911-10.3161756-10.29757z" opacity=".2"/><path d="m3.9225174 272.30408v2.40129c0 9.33846.9588206 10.34334 10.3161756 10.29757h19.3157 19.315183c9.357352.0458 10.316692-.95911 10.316692-10.29757v-2.40129z" opacity=".2"/><path d="m10.404047 276.92795c.01791 1.1973.03158 2.39504.08733 3.59133 13.106562.20462 26.278152.15873 39.379893.0971 2.252049-.02 4.504323-.0351 6.755845-.0904.05319-1.3228.08264-2.64645.103866-3.97011-15.443777 0-30.887551 0-46.331325 0 .0015.12402.0029.24804.0044.37206z" opacity=".5"/><path d="m3.923034 271.77496h59.263748v.529141h-59.263748z" fill="#fff" opacity=".2"/><path d="m10.39984 277.08495c.0015.12402.0027.24804.0041.37205.01791 1.19731.03158 2.39505.08733 3.59134 13.106563.20462 26.278409.15873 39.380153.0971 2.252049-.02 4.50432-.0351 6.755845-.0904.05319-1.32281.08264-2.64645.103865-3.97011h-.01085c-.02053 1.14725-.04691 2.29445-.09301 3.44096-2.251523.0553-4.503794.0704-6.755843.0904-13.101744.0616-26.273593.10747-39.380155-.0971-.05331-1.14398-.06789-2.28927-.08474-3.43425z" fill="#fff" opacity=".3"/><path d="m10.39984 276.55581c.0015.12402.0027.24803.0041.37205.000794.0524.0018.10473.0026.15709h46.313742c.0031-.17639.008-.35274.01085-.52914z" opacity=".2"/></g></svg>

<?xml version="1.0" encoding="UTF-8" standalone="no"?>
<svg
   xmlns:dc="http://purl.org/dc/elements/1.1/"
   xmlns:cc="http://creativecommons.org/ns#"
   xmlns:rdf="http://www.w3.org/1999/02/22-rdf-syntax-ns#"
   xmlns:svg="http://www.w3.org/2000/svg"
   xmlns="http://www.w3.org/2000/svg"
   xmlns:xlink="http://www.w3.org/1999/xlink"
   xmlns:sodipodi="http://sodipodi.sourceforge.net/DTD/sodipodi-0.dtd"
   xmlns:inkscape="http://www.inkscape.org/namespaces/inkscape"
   width="256"
   height="256"
   version="1.1"
   viewBox="0 0 67.73 67.73"
   id="svg49"
   sodipodi:docname="drive-removable-media.svg"
   inkscape:version="0.92.3 (2405546, 2018-03-11)">
  <metadata
     id="metadata53">
    <rdf:RDF>
      <cc:Work
         rdf:about="">
        <dc:format>image/svg+xml</dc:format>
        <dc:type
           rdf:resource="http://purl.org/dc/dcmitype/StillImage" />
        <dc:title />
      </cc:Work>
    </rdf:RDF>
  </metadata>
  <sodipodi:namedview
     pagecolor="#ffffff"
     bordercolor="#666666"
     borderopacity="1"
     objecttolerance="10"
     gridtolerance="10"
     guidetolerance="10"
     inkscape:pageopacity="0"
     inkscape:pageshadow="2"
     inkscape:window-width="1920"
     inkscape:window-height="1009"
     id="namedview51"
     showgrid="false"
     inkscape:zoom="1.4339368"
     inkscape:cx="88.694201"
     inkscape:cy="242.02603"
     inkscape:window-x="0"
     inkscape:window-y="34"
     inkscape:window-maximized="1"
     inkscape:current-layer="g47" />
  <defs
     id="defs25">
    <linearGradient
       id="linearGradient930"
       x1="334.866"
       x2="334.866"
       y1="140.23"
       y2="160.631"
       gradientUnits="userSpaceOnUse"
       xlink:href="#linearGradient928" />
    <linearGradient
       id="linearGradient928">
      <stop
         style="stop-color:#808080"
         offset="0"
         id="stop3" />
      <stop
         style="stop-color:#999999"
         offset="1"
         id="stop5" />
    </linearGradient>
    <linearGradient
       id="linearGradient4226"
       x1="529.655"
       x2="-35.31"
       y1="295.638"
       y2="295.638"
       gradientTransform="matrix(0 -.11988932 -.11988589 0 66.487288 293.07747)"
       gradientUnits="userSpaceOnUse">
      <stop
         style="stop-color:#999999"
         offset="0"
         id="stop8" />
      <stop
         style="stop-color:#b7b7b7"
         offset=".613"
         id="stop10" />
      <stop
         style="stop-color:#dbdbdb"
         offset="1"
         id="stop12" />
    </linearGradient>
    <linearGradient
       id="linearGradient4358"
       x1="88"
       x2="488"
       y1="88"
       y2="488"
       gradientUnits="userSpaceOnUse">
      <stop
         style="stop-color:#000000;stop-opacity:.58823532"
         offset="0"
         id="stop15" />
      <stop
         style="stop-color:#000000;stop-opacity:0"
         offset=".88"
         id="stop17" />
      <stop
         style="stop-color:#000000"
         offset="1"
         id="stop19" />
    </linearGradient>
    <filter
       id="filter4346"
       width="1.026"
       height="1.022"
       x="-.01"
       y="-.01"
       style="color-interpolation-filters:sRGB">
      <feGaussianBlur
         stdDeviation="2.12"
         id="feGaussianBlur22" />
    </filter>
    <linearGradient
       id="linearGradient1234">
      <stop
         style="stop-color:#aeadab"
         offset="0"
         id="stop1230" />
      <stop
         style="stop-color:#ceccc8"
         offset="1"
         id="stop1232" />
    </linearGradient>
    <linearGradient
       id="linearGradient1228">
      <stop
         style="stop-color:#e66100"
         offset="0"
         id="stop1224" />
      <stop
         style="stop-color:#ff7800"
         offset="1"
         id="stop1226" />
    </linearGradient>
    <linearGradient
       id="linearGradient1222">
      <stop
         offset="0"
         id="stop1210"
         style="stop-color:#9a9996" />
      <stop
         style="stop-color:#c0bfbc"
         offset=".038"
         id="stop1212" />
      <stop
         offset=".077"
         id="stop1214"
         style="stop-color:#77767b" />
      <stop
         style="stop-color:#77767b"
         offset=".923"
         id="stop1216" />
      <stop
         offset=".962"
         id="stop1218"
         style="stop-color:#c0bfbc" />
      <stop
         offset="1"
         id="stop1220"
         style="stop-color:#9a9996" />
    </linearGradient>
    <linearGradient
       id="linearGradient1339">
      <stop
         offset="0"
         id="stop1335"
         style="stop-color:#5e5c64" />
      <stop
         offset="1"
         id="stop1337"
         style="stop-color:#77767b" />
    </linearGradient>
    <linearGradient
       xlink:href="#linearGradient1222"
       gradientUnits="userSpaceOnUse"
       gradientTransform="matrix(1.0769231,0,0,1.0666667,-4.92308,-14.933327)"
       y2="254"
       y1="254"
       x2="116"
       x1="12"
       id="linearGradient1820" />
    <linearGradient
       xlink:href="#linearGradient1339"
       gradientUnits="userSpaceOnUse"
       gradientTransform="rotate(90,20,213)"
       y2="209"
       y1="209"
       x2="31"
       x1="19"
       id="linearGradient1822" />
    <linearGradient
       xlink:href="#linearGradient1339"
       gradientUnits="userSpaceOnUse"
       gradientTransform="rotate(90,36,273)"
       y2="209"
       y1="209"
       x2="31"
       x1="19"
       id="linearGradient1824" />
    <linearGradient
       xlink:href="#linearGradient1234"
       gradientUnits="userSpaceOnUse"
       gradientTransform="rotate(90,10,247)"
       y2="209"
       y1="209"
       x2="31"
       x1="17"
       id="linearGradient1826" />
    <linearGradient
       xlink:href="#linearGradient1339"
       gradientUnits="userSpaceOnUse"
       gradientTransform="rotate(90,30,223)"
       y2="209"
       y1="209"
       x2="31"
       x1="19"
       id="linearGradient1828" />
    <linearGradient
       xlink:href="#linearGradient1339"
       gradientUnits="userSpaceOnUse"
       gradientTransform="rotate(90,40,233)"
       y2="209"
       y1="209"
       x2="31"
       x1="19"
       id="linearGradient1830" />
    <linearGradient
       xlink:href="#linearGradient1339"
       gradientUnits="userSpaceOnUse"
       gradientTransform="rotate(90,50,243)"
       y2="209"
       y1="209"
       x2="31"
       x1="19"
       id="linearGradient1832" />
    <linearGradient
       xlink:href="#linearGradient1339"
       gradientUnits="userSpaceOnUse"
       gradientTransform="rotate(90,60,253)"
       y2="209"
       y1="209"
       x2="31"
       x1="19"
       id="linearGradient1834" />
    <linearGradient
       xlink:href="#linearGradient1339"
       gradientUnits="userSpaceOnUse"
       gradientTransform="rotate(90,14,229)"
       y2="209"
       y1="209"
       x2="31"
       x1="19"
       id="linearGradient1836" />
    <linearGradient
       xlink:href="#linearGradient1339"
       gradientUnits="userSpaceOnUse"
       gradientTransform="rotate(90,24,239)"
       y2="209"
       y1="209"
       x2="31"
       x1="19"
       id="linearGradient1838" />
    <linearGradient
       xlink:href="#linearGradient1339"
       gradientUnits="userSpaceOnUse"
       gradientTransform="rotate(90,34,249)"
       y2="209"
       y1="209"
       x2="31"
       x1="19"
       id="linearGradient1840" />
    <linearGradient
       xlink:href="#linearGradient1228"
       gradientUnits="userSpaceOnUse"
       gradientTransform="rotate(90,49,264)"
       y2="209"
       y1="209"
       x2="31"
       x1="19"
       id="linearGradient1842" />
    <linearGradient
       xlink:href="#linearGradient1339"
       gradientUnits="userSpaceOnUse"
       gradientTransform="rotate(90,0,237)"
       y2="209"
       y1="209"
       x2="31"
       x1="19"
       id="linearGradient1844" />
    <linearGradient
       xlink:href="#linearGradient1637"
       gradientUnits="userSpaceOnUse"
       gradientTransform="translate(-23.199949,-16.80108)"
       y2="212"
       y1="100"
       x2="152"
       x1="152"
       id="linearGradient979" />
    <linearGradient
       id="linearGradient1637">
      <stop
         offset="0"
         id="stop1635"
         style="stop-color:#f2f2f2" />
      <stop
         offset="1"
         id="stop1633"
         style="stop-color:#f7f7f7" />
    </linearGradient>
    <filter
       style="color-interpolation-filters:sRGB"
       y="-.03"
       x="-.02"
       height="1.065"
       width="1.038"
       id="filter997">
      <feGaussianBlur
         stdDeviation="1.52"
         id="feGaussianBlur999" />
    </filter>
    <filter
       style="color-interpolation-filters:sRGB"
       y="-.02"
       x="-.01"
       height="1.033"
       width="1.019"
       id="filter991">
      <feGaussianBlur
         stdDeviation=".76"
         id="feGaussianBlur993" />
    </filter>
    <linearGradient
       xlink:href="#linearGradient1013-6"
       gradientUnits="userSpaceOnUse"
       y2="228"
       y1="76"
       x2="152"
       x1="152"
       id="linearGradient962" />
    <linearGradient
       id="linearGradient1013-6">
      <stop
         offset="0"
         id="stop1005-7"
         style="stop-color:#ffffff" />
      <stop
         style="stop-color:#ffffff;stop-opacity:0.09803922"
         offset=".125"
         id="stop1007-5" />
      <stop
         style="stop-color:#000000;stop-opacity:0.09803922"
         offset=".925"
         id="stop1009-3" />
      <stop
         offset="1"
         id="stop1011"
         style="stop-color:#000000;stop-opacity:0.49803922" />
    </linearGradient>
    <clipPath
       clipPathUnits="userSpaceOnUse"
       id="clipPath1463">
      <path
         id="path4618"
         style="fill:#808080"
         d="m 271.99897,211.00107 c 0,25.00001 -9.78264,24.70848 -35,25.00001 H 66.99995 c -25.21735,-0.29153 -35,0 -35,-25.00001 V 101.00003 c 0,-25.000009 9.78265,-24.708474 35,-25.000009 h 169.99902 c 25.21736,0.291535 35,0 35,25.000009 z" />
    </clipPath>
    <linearGradient
       xlink:href="#linearGradient4226"
       gradientUnits="userSpaceOnUse"
       gradientTransform="matrix(0.90245399,0,0,1.0651091,624.16649,-323.9997)"
       y2="228"
       y1="84"
       x2="152"
       x1="152"
       id="linearGradient1331" />
    <linearGradient
       id="linearGradient1048">
      <stop
         style="stop-color:#cdcdcd"
         offset="0"
         id="stop1044" />
      <stop
         style="stop-color:#d9d9d9"
         offset="1"
         id="stop1046" />
    </linearGradient>
    <linearGradient
       xlink:href="#linearGradient927"
       gradientUnits="userSpaceOnUse"
       y2="232"
       y1="80"
       x2="156"
       x1="156"
       id="linearGradient1347" />
    <linearGradient
       id="linearGradient927">
      <stop
         style="stop-color:#ffffff"
         offset="0"
         id="stop923" />
      <stop
         offset=".125"
         id="stop933"
         style="stop-color:#ffffff;stop-opacity:0.09803922" />
      <stop
         offset=".925"
         id="stop931"
         style="stop-color:#ffffff;stop-opacity:0.09803922" />
      <stop
         style="stop-color:#ffffff;stop-opacity:0.49803922"
         offset="1"
         id="stop925" />
    </linearGradient>
    <clipPath
       clipPathUnits="userSpaceOnUse"
       id="clipPath1337">
      <path
         id="path4631"
         style="fill:#808080"
         d="m 265.99897,205.00107 c 0,25.00001 -9.78264,24.70848 -35,25.00001 H 72.99995 c -25.21735,-0.29153 -35,0 -35,-25.00001 v -98.00104 c 0,-25.000009 9.78265,-24.708474 35,-25.000009 h 157.99902 c 25.21736,0.291535 35,0 35,25.000009 z" />
    </clipPath>
    <filter
       style="color-interpolation-filters:sRGB"
       y="-.01"
       x="-.01"
       height="1.03"
       width="1.02"
       id="filter1379">
      <feGaussianBlur
         stdDeviation=".94"
         id="feGaussianBlur1381" />
    </filter>
    <filter
       style="color-interpolation-filters:sRGB"
       y="-.01"
       x="-.01"
       height="1.03"
       width="1.02"
       id="filter932">
      <feGaussianBlur
         stdDeviation="1"
         id="feGaussianBlur934" />
    </filter>
    <filter
       style="color-interpolation-filters:sRGB"
       y="-.03"
       x="-.02"
       height="1.06"
       width="1.04"
       id="filter938">
      <feGaussianBlur
         stdDeviation="2"
         id="feGaussianBlur940" />
    </filter>
    <linearGradient
       xlink:href="#linearGradient1048"
       gradientUnits="userSpaceOnUse"
       gradientTransform="matrix(0.23876253,0,0,0.28179624,76.818004,160.71717)"
       y2="228"
       y1="84"
       x2="152"
       x1="152"
       id="linearGradient1331-3" />
    <linearGradient
       gradientUnits="userSpaceOnUse"
       y2="295.6377"
       x2="-35.310345"
       y1="295.6377"
       x1="529.65515"
       id="linearGradient4226-3"
       xlink:href="#linearGradient4338-3"
       inkscape:collect="always"
       gradientTransform="matrix(0,-0.11988342,-0.11987999,0,66.879391,291.35314)" />
    <linearGradient
       inkscape:collect="always"
       id="linearGradient4338-3">
      <stop
         id="stop4342-7"
         offset="0"
         style="stop-color:#999999;stop-opacity:1" />
      <stop
         style="stop-color:#b7b7b7;stop-opacity:1"
         offset="0.61328125"
         id="stop932" />
      <stop
         id="stop4340-0"
         offset="1"
         style="stop-color:#dbdbdb;stop-opacity:1" />
    </linearGradient>
    <linearGradient
       inkscape:collect="always"
       xlink:href="#linearGradient4360"
       id="linearGradient4358-6"
       x1="88"
       y1="88"
       x2="488"
       y2="488"
       gradientUnits="userSpaceOnUse"
       gradientTransform="rotate(-90,287.9946,298)" />
    <linearGradient
       id="linearGradient4360"
       inkscape:collect="always">
      <stop
         id="stop4362"
         offset="0"
         style="stop-color:#000000;stop-opacity:0.58823532" />
      <stop
         style="stop-color:#000000;stop-opacity:0"
         offset="0.88"
         id="stop4364" />
      <stop
         id="stop4366"
         offset="1"
         style="stop-color:#000000;stop-opacity:1" />
    </linearGradient>
    <filter
       inkscape:collect="always"
       style="color-interpolation-filters:sRGB"
       id="filter4380"
       x="-0.052999184"
       width="1.1059984"
       y="-0.043862626"
       height="1.0877253">
      <feGaussianBlur
         inkscape:collect="always"
         stdDeviation="8.4801079"
         id="feGaussianBlur4382" />
    </filter>
    <filter
       inkscape:collect="always"
       style="color-interpolation-filters:sRGB"
       id="filter4346-7"
       x="-0.013249796"
       width="1.0264996"
       y="-0.010965657"
       height="1.0219313">
      <feGaussianBlur
         inkscape:collect="always"
         stdDeviation="2.120027"
         id="feGaussianBlur4348" />
    </filter>
  </defs>
  <g
     transform="translate(0,-229.26666)"
     id="g47">
    <path
       style="color:#000000;display:inline;overflow:visible;visibility:visible;opacity:0.1;fill:#000000;fill-opacity:1;fill-rule:nonzero;stroke:none;stroke-width:2;marker:none;filter:url(#filter4346-7);enable-background:accumulate"
       d="M 189.84323,74 C 119.24979,74 111.65402,81.250835 112,151.98706 V 298 444.01294 C 111.65402,514.74917 119.24979,522 189.84323,522 H 386.15677 C 456.75021,522 462.16345,514.72616 464,444.01294 V 298 151.98706 C 464,81.249993 456.75021,74 386.15677,74 Z"
       id="rect4158-9"
       inkscape:connector-curvature="0"
       sodipodi:nodetypes="scccssscsss"
       transform="matrix(0,0.13228516,-0.13228516,0,72.975171,223.88843)" />
    <path
       sodipodi:nodetypes="scccssscsss"
       inkscape:connector-curvature="0"
       id="path4350"
       d="M 189.84323,74 C 119.24979,74 111.65402,81.250835 112,151.98706 V 298 444.01294 C 111.65402,514.74917 119.24979,522 189.84323,522 H 386.15677 C 456.75021,522 464,514.75001 464,444.01294 V 298 151.98706 C 464,81.249993 456.75021,74 386.15677,74 Z"
       style="color:#000000;display:inline;overflow:visible;visibility:visible;opacity:0.3;fill:url(#linearGradient4358-6);fill-opacity:1;fill-rule:nonzero;stroke:none;stroke-width:2;marker:none;filter:url(#filter4380);enable-background:accumulate"
       transform="matrix(0,0.13228516,-0.13228516,0,72.975171,223.88843)" />
    <path
       style="color:#000000;display:inline;overflow:visible;visibility:visible;fill:url(#linearGradient4226-3);fill-opacity:1;fill-rule:nonzero;stroke:none;stroke-width:0.26457033;marker:none;enable-background:accumulate"
       d="m 63.186069,274.70524 c 0,9.33847 -0.959178,10.34327 -10.31653,10.2975 H 33.554194 14.238851 c -9.3573553,0.0458 -10.3165312,-0.95903 -10.3165312,-10.2975 v -25.96937 c 0,-9.33846 0.9590674,-10.2975 10.3165312,-10.2975 h 19.315343 19.315345 c 9.357463,0 10.31653,0.95904 10.31653,10.2975 z"
       id="rect4158"
       inkscape:connector-curvature="0"
       sodipodi:nodetypes="scccssscsss" />
    <path
       inkscape:connector-curvature="0"
       style="color:#000000;display:inline;overflow:visible;visibility:visible;opacity:0.2;fill:#000000;fill-opacity:1;fill-rule:nonzero;stroke:none;stroke-width:0.26457033;marker:none;enable-background:accumulate"
       d="m 3.9225174,274.17623 v 0.52914 c 0,9.33846 0.9588206,10.34334 10.3161756,10.29757 h 19.3157 19.315183 c 9.357352,0.0458 10.316692,-0.95911 10.316692,-10.29757 v -0.52914 c 0,9.33846 -0.95934,10.34334 -10.316692,10.29757 H 33.554393 14.238693 C 4.881338,284.51957 3.9225174,283.51469 3.9225174,274.17623 Z"
       id="rect4158-5" />
    <path
       style="color:#000000;display:inline;overflow:visible;visibility:visible;opacity:0.2;fill:#000000;fill-opacity:1;fill-rule:nonzero;stroke:none;stroke-width:0.26457033;marker:none;enable-background:accumulate"
       d="m 3.9225174,272.30408 v 2.40129 c 0,9.33846 0.9588206,10.34334 10.3161756,10.29757 h 19.3157 19.315183 c 9.357352,0.0458 10.316692,-0.95911 10.316692,-10.29757 v -2.40129 z"
       id="rect4158-91"
       inkscape:connector-curvature="0"
       sodipodi:nodetypes="cscccscc" />
    <path
       style="display:inline;opacity:0.5;fill:#000000;fill-opacity:1;stroke:none;stroke-width:0.70560902;stroke-linecap:round;stroke-linejoin:bevel;stroke-miterlimit:10;stroke-dasharray:none;stroke-dashoffset:0;stroke-opacity:1;enable-background:new"
       d="m 10.404047,276.92795 c 0.01791,1.1973 0.03158,2.39504 0.08733,3.59133 13.106562,0.20462 26.278152,0.15873 39.379893,0.0971 2.252049,-0.02 4.504323,-0.0351 6.755845,-0.0904 0.05319,-1.3228 0.08264,-2.64645 0.103866,-3.97011 -15.443777,0 -30.887551,0 -46.331325,0 0.0015,0.12402 0.0029,0.24804 0.0044,0.37206 z"
       id="path11736"
       inkscape:connector-curvature="0" />
    <rect
       style="display:inline;opacity:0.2;fill:#ffffff;fill-opacity:1;stroke:none;stroke-width:0.70560902;stroke-linecap:round;stroke-linejoin:bevel;stroke-miterlimit:10;stroke-dasharray:none;stroke-dashoffset:0;stroke-opacity:1;enable-background:new"
       id="rect11738"
       width="59.263748"
       height="0.52914065"
       x="3.923034"
       y="271.77496" />
    <path
       style="display:inline;opacity:0.3;fill:#ffffff;fill-opacity:1;stroke:none;stroke-width:0.70560902;stroke-linecap:round;stroke-linejoin:bevel;stroke-miterlimit:10;stroke-dasharray:none;stroke-dashoffset:0;stroke-opacity:1;enable-background:new"
       d="m 10.39984,277.08495 c 0.0015,0.12402 0.0027,0.24804 0.0041,0.37205 0.01791,1.19731 0.03158,2.39505 0.08733,3.59134 13.106563,0.20462 26.278409,0.15873 39.380153,0.0971 2.252049,-0.02 4.50432,-0.0351 6.755845,-0.0904 0.05319,-1.32281 0.08264,-2.64645 0.103865,-3.97011 h -0.01085 c -0.02053,1.14725 -0.04691,2.29445 -0.09301,3.44096 -2.251523,0.0553 -4.503794,0.0704 -6.755843,0.0904 -13.101744,0.0616 -26.273593,0.10747 -39.380155,-0.0971 -0.05331,-1.14398 -0.06789,-2.28927 -0.08474,-3.43425 z"
       id="path11736-2"
       inkscape:connector-curvature="0" />
    <path
       style="display:inline;opacity:0.2;fill:#000000;fill-opacity:1;stroke:none;stroke-width:0.70560902;stroke-linecap:round;stroke-linejoin:bevel;stroke-miterlimit:10;stroke-dasharray:none;stroke-dashoffset:0;stroke-opacity:1;enable-background:new"
       d="m 10.39984,276.55581 c 0.0015,0.12402 0.0027,0.24803 0.0041,0.37205 7.94e-4,0.0524 0.0018,0.10473 0.0026,0.15709 h 46.313742 c 0.0031,-0.17639 0.008,-0.35274 0.01085,-0.52914 z"
       id="path11736-0"
       inkscape:connector-curvature="0" />
  </g>
</svg>
